src/assets/images/svg/languages/logo-sass.svg

<svg width="43" height="32" viewBox="0 0 43 32" fill="none" xmlns="http://www.w3.org/2000/svg">
<g clip-path="url(#clip0_98_92)">
<path d="M37.0035 18.3834C35.5001 18.3918 34.1984 18.75 33.1066 19.2834C32.7035 18.4918 32.3003 17.8 32.2332 17.2834C32.1576 16.6834 32.0653 16.3167 32.1576 15.6001C32.2499 14.8834 32.6699 13.8667 32.6699 13.7834C32.6614 13.7084 32.5774 13.3417 31.7124 13.3334C30.8475 13.325 30.0999 13.5 30.016 13.725C29.932 13.95 29.764 14.4667 29.6548 15C29.5037 15.7834 27.9248 18.5584 27.0261 20.0167C26.7322 19.45 26.4802 18.95 26.4297 18.5499C26.3542 17.95 26.2618 17.5833 26.3542 16.8667C26.4466 16.1499 26.8665 15.1334 26.8665 15.05C26.8582 14.975 26.7742 14.6084 25.9092 14.6C25.0441 14.5917 24.2967 14.7667 24.2127 14.9917C24.1287 15.2167 24.0364 15.75 23.8516 16.2667C23.6751 16.7834 21.5755 21.4167 21.0296 22.625C20.7525 23.2417 20.509 23.7334 20.3326 24.0667C20.1562 24.4 20.3242 24.0917 20.3074 24.125C20.1562 24.4084 20.0722 24.5667 20.0722 24.5667V24.5751C19.9546 24.7834 19.8287 24.9834 19.7698 24.9834C19.7278 24.9834 19.6438 24.425 19.7866 23.6584C20.0973 22.05 20.8532 19.5418 20.8449 19.4501C20.8449 19.4084 20.9876 18.9667 20.3577 18.7418C19.7446 18.5168 19.5263 18.8918 19.4758 18.8918C19.4254 18.8918 19.3835 19.0251 19.3835 19.0251C19.3835 19.0251 20.0637 16.2002 18.0817 16.2002C16.8387 16.2002 15.1254 17.5419 14.2772 18.7669C13.7397 19.0585 12.5975 19.6751 11.3881 20.3335C10.9262 20.5835 10.4475 20.8502 9.99401 21.0919L9.90171 20.9917C7.49975 18.45 3.05698 16.65 3.24175 13.2334C3.30893 11.9917 3.74565 8.7167 11.7746 4.75003C18.3506 1.50003 23.6164 2.3917 24.5318 4.37503C25.8335 7.20836 21.7183 12.475 14.8821 13.2334C12.2785 13.525 10.9095 12.525 10.5653 12.15C10.2041 11.7584 10.1537 11.7417 10.0194 11.8167C9.80101 11.9334 9.93538 12.2834 10.0194 12.4917C10.2209 13.0167 11.0608 13.95 12.4885 14.4167C13.7398 14.825 16.7969 15.05 20.4922 13.6334C24.6327 12.0417 27.866 7.62503 26.917 3.93336C25.9512 0.17503 19.6692 -1.0583 13.7315 1.03336C10.1957 2.28336 6.36596 4.23336 3.61128 6.7917C0.335886 9.82503 -0.184817 12.475 0.0335422 13.575C0.797884 17.5 6.24839 20.0584 8.43198 21.95C8.3228 22.0083 8.22202 22.0666 8.12964 22.1167C7.03784 22.6499 2.88061 24.8084 1.83921 27.0916C0.663425 29.6749 2.02397 31.5334 2.931 31.7834C5.73608 32.5584 8.60835 31.1667 10.1621 28.875C11.7073 26.5834 11.5226 23.6084 10.8087 22.25L10.7835 22.2L11.6401 21.7C12.1945 21.375 12.7404 21.075 13.219 20.8166C12.9503 21.5416 12.7571 22.3999 12.6564 23.6499C12.5388 25.1167 13.1435 27.0166 13.9414 27.7666C14.2941 28.0915 14.714 28.0999 14.9744 28.0999C15.8982 28.0999 16.3181 27.3415 16.78 26.4333C17.3511 25.3249 17.855 24.0416 17.855 24.0416C17.855 24.0416 17.2251 27.5166 18.9468 27.5166C19.5767 27.5166 20.2066 26.7083 20.4921 26.2916V26.2999C20.4921 26.2999 20.5089 26.2749 20.5425 26.2166C20.5778 26.1649 20.6114 26.1121 20.6433 26.0584V26.0417C20.8953 25.6084 21.458 24.6167 22.2978 22.975C23.3811 20.8584 24.4226 18.2084 24.4226 18.2084C24.4226 18.2084 24.5234 18.8584 24.8341 19.925C25.0188 20.5584 25.4219 21.25 25.7327 21.925C25.4807 22.275 25.3296 22.4751 25.3296 22.4751L25.3379 22.4834C25.1365 22.7501 24.9096 23.0335 24.6746 23.3168C23.8179 24.3334 22.7933 25.4919 22.6589 25.8252C22.4994 26.2168 22.533 26.5084 22.8437 26.7419C23.0705 26.9085 23.4736 26.9418 23.9019 26.9085C24.6746 26.8584 25.2121 26.6669 25.4808 26.5501C25.9007 26.4001 26.3794 26.1751 26.8414 25.8418C27.6812 25.2252 28.1935 24.3502 28.1431 23.1835C28.1179 22.5419 27.908 21.9085 27.6476 21.3085C27.7232 21.2002 27.7989 21.0918 27.8744 20.9752C29.2013 19.0501 30.2259 16.9335 30.2259 16.9335C30.2259 16.9335 30.3267 17.5835 30.6374 18.6502C30.7969 19.1919 31.1162 19.7836 31.4017 20.3669C30.1587 21.3753 29.3777 22.5419 29.1089 23.3086C28.6134 24.7253 28.9998 25.3669 29.7304 25.5169C30.0579 25.5836 30.5283 25.4336 30.8809 25.2836C31.3176 25.1419 31.8467 24.9002 32.3339 24.5419C33.1738 23.9253 33.98 23.0669 33.938 21.9086C33.9128 21.3753 33.7701 20.8503 33.5769 20.3503C34.6351 19.9169 36.004 19.6669 37.7425 19.8753C41.4798 20.3086 42.2189 22.6253 42.0762 23.5919C41.9334 24.5587 41.1524 25.0919 40.8919 25.2586C40.6316 25.4169 40.5476 25.4754 40.5728 25.5919C40.6064 25.767 40.724 25.7586 40.9507 25.7254C41.2615 25.6753 42.916 24.9337 42.9832 23.1504C43.0839 20.8584 40.8919 18.3584 37.0035 18.3834ZM8.18003 28.025C6.94546 29.3667 5.20698 29.875 4.46792 29.4417C3.67007 28.9834 3.98072 27.0084 5.50092 25.5834C6.42475 24.7167 7.62573 23.9167 8.41518 23.425C8.59155 23.3167 8.8603 23.1584 9.17944 22.9667C9.22983 22.9334 9.26342 22.9167 9.26342 22.9167C9.32221 22.8834 9.3894 22.8417 9.45659 22.8C10.0193 24.8334 9.48178 26.6167 8.18003 28.025ZM17.2083 21.9334C16.78 22.975 15.873 25.65 15.3271 25.5C14.8567 25.375 14.5712 23.35 15.2346 21.35C15.5706 20.3416 16.2844 19.1417 16.7044 18.6749C17.3847 17.9249 18.1237 17.6749 18.3085 17.9833C18.5269 18.3834 17.4771 21.2834 17.2083 21.9334ZM24.6578 25.4667C24.473 25.5584 24.305 25.625 24.2294 25.5751C24.1707 25.5418 24.3049 25.4168 24.3049 25.4168C24.3049 25.4168 25.2372 24.4251 25.6067 23.9668C25.8167 23.7002 26.0686 23.3919 26.3374 23.0418V23.1418C26.3374 24.3417 25.1785 25.1417 24.6578 25.4667ZM30.4022 24.1667C30.2678 24.0667 30.2847 23.7584 30.7381 22.7917C30.9146 22.4084 31.3176 21.7667 32.0147 21.1584C32.0987 21.4084 32.1492 21.6499 32.1407 21.875C32.1324 23.375 31.0574 23.9334 30.4022 24.1667Z" fill="#708AF4"/>
</g>
<defs>
<clipPath id="clip0_98_92">
<rect width="43" height="32" fill="white"/>
</clipPath>
</defs>
</svg>

<svg xmlns="http://www.w3.org/2000/svg" width="43" height="32" fill="none"><g clip-path="url(#a)"><path fill="#708AF4" d="M37.004 18.383a8.915 8.915 0 0 0-3.897.9c-.404-.791-.807-1.483-.874-2-.075-.6-.168-.966-.075-1.683.092-.717.512-1.733.512-1.817-.009-.075-.093-.441-.958-.45-.864-.008-1.612.167-1.696.392A9.514 9.514 0 0 0 29.655 15c-.151.783-1.73 3.558-2.629 5.017-.294-.567-.546-1.067-.596-1.467-.076-.6-.168-.967-.076-1.683.093-.717.512-1.734.512-1.817-.008-.075-.092-.442-.957-.45-.865-.008-1.612.167-1.696.392-.084.225-.177.758-.361 1.275-.177.516-2.276 5.15-2.822 6.358a25.64 25.64 0 0 1-.697 1.442c-.177.333-.009.025-.026.058l-.235.442v.008c-.117.208-.243.408-.302.408-.042 0-.126-.558.017-1.325.31-1.608 1.066-4.116 1.058-4.208 0-.042.143-.483-.487-.708-.613-.225-.832.15-.882.15-.05 0-.092.133-.092.133s.68-2.825-1.302-2.825c-1.243 0-2.957 1.342-3.805 2.567-.537.291-1.68.908-2.889 1.567-.462.25-.94.516-1.394.758l-.092-.1C7.5 18.45 3.057 16.65 3.242 13.233c.067-1.241.504-4.516 8.533-8.483 6.576-3.25 11.841-2.358 12.757-.375 1.302 2.833-2.814 8.1-9.65 8.858-2.604.292-3.973-.708-4.317-1.083-.36-.392-.411-.408-.546-.333-.218.116-.084.466 0 .675.202.525 1.042 1.458 2.47 1.925 1.25.408 4.308.633 8.003-.784 4.14-1.591 7.374-6.008 6.425-9.7-.966-3.758-7.248-4.991-13.186-2.9-3.535 1.25-7.365 3.2-10.12 5.759C.336 9.825-.185 12.475.034 13.575c.764 3.925 6.214 6.483 8.398 8.375-.11.058-.21.117-.302.167-1.092.533-5.25 2.691-6.29 4.975-1.177 2.583.184 4.441 1.091 4.691 2.805.775 5.677-.616 7.231-2.908 1.545-2.292 1.36-5.267.647-6.625l-.025-.05.856-.5c.554-.325 1.1-.625 1.579-.883-.269.725-.462 1.583-.563 2.833-.117 1.467.487 3.367 1.285 4.117.353.325.773.333 1.033.333.924 0 1.344-.759 1.806-1.667.571-1.108 1.075-2.391 1.075-2.391s-.63 3.475 1.092 3.475c.63 0 1.26-.809 1.545-1.225v.008s.017-.025.05-.083c.036-.052.07-.105.101-.159v-.016c.252-.434.815-1.425 1.655-3.067 1.083-2.117 2.125-4.767 2.125-4.767s.1.65.411 1.717c.185.633.588 1.325.899 2-.252.35-.403.55-.403.55l.008.008c-.201.267-.428.55-.663.834-.857 1.016-1.882 2.175-2.016 2.508-.16.392-.126.683.185.917.226.166.63.2 1.058.166a4.743 4.743 0 0 0 1.579-.358c.42-.15.898-.375 1.36-.708.84-.617 1.352-1.492 1.302-2.659-.025-.641-.235-1.274-.495-1.875.075-.108.15-.216.226-.333 1.327-1.925 2.352-4.042 2.352-4.042s.1.65.411 1.717c.16.542.48 1.134.765 1.717-1.243 1.008-2.024 2.175-2.293 2.942-.496 1.416-.11 2.058.621 2.208.328.067.798-.083 1.15-.233a5.229 5.229 0 0 0 1.454-.742c.84-.617 1.646-1.475 1.604-2.633-.025-.534-.168-1.059-.361-1.559 1.058-.433 2.427-.683 4.166-.475 3.737.434 4.476 2.75 4.333 3.717-.143.967-.924 1.5-1.184 1.667-.26.158-.344.216-.32.333.034.175.152.167.379.133.31-.05 1.965-.791 2.032-2.575.1-2.292-2.091-4.792-5.98-4.767ZM8.18 28.025c-1.235 1.342-2.973 1.85-3.712 1.417-.798-.459-.487-2.434 1.033-3.859.924-.866 2.125-1.666 2.914-2.158.177-.108.445-.267.764-.458.05-.034.084-.05.084-.05.06-.034.126-.075.194-.117.562 2.033.025 3.817-1.277 5.225Zm9.028-6.092c-.428 1.042-1.335 3.717-1.88 3.567-.471-.125-.757-2.15-.093-4.15.336-1.008 1.05-2.208 1.47-2.675.68-.75 1.419-1 1.604-.692.218.4-.832 3.3-1.1 3.95Zm7.45 3.534c-.185.091-.353.158-.429.108-.058-.033.076-.158.076-.158s.932-.992 1.302-1.45c.21-.267.462-.575.73-.925v.1c0 1.2-1.159 2-1.68 2.325Zm5.744-1.3c-.134-.1-.117-.409.336-1.375.177-.384.58-1.025 1.277-1.634.084.25.134.492.126.717-.009 1.5-1.084 2.058-1.739 2.292Z"/></g><defs><clipPath id="a"><path fill="#fff" d="M0 0h43v32H0z"/></clipPath></defs></svg>
